packages/components/src/images/trezor_logo_suite.svg

<svg xmlns="http://www.w3.org/2000/svg" fill-rule="evenodd" stroke-linejoin="round" stroke-miterlimit="2" clip-rule="evenodd" viewBox="0 0 185 39"><clipPath id="a"><path d="M0 0h185v39H0z"/></clipPath><g fill-rule="nonzero" clip-path="url(#a)"><path fill="#303030" d="M21.624 7.313v17.062l-4.806-2.438V7.313h4.806z"/><path fill="#39a814" fill-opacity=".9" d="M21.624 7.313v17.062l-4.806-2.438V7.313h4.806z"/><path fill="#303030" d="M4.805 7.312v14.626L0 24.375V7.312h4.805z"/><path fill="#39a814" fill-opacity=".6" d="M4.805 7.312v14.626L0 24.375V7.312h4.805z"/><path fill="#303030" d="M10.813 24.375l6.006-2.438 4.805 2.438-10.811 4.875v-4.875z"/><path fill="#39a814" fill-opacity=".8" d="M10.813 24.375l6.006-2.438 4.805 2.438-10.811 4.875v-4.875z"/><path fill="url(#_Linear2)" d="M16.82 21.938l4.804 2.437-1.351.61-4.257-2.721.803-.326h.001z"/><path fill="url(#_Linear3)" d="M0 24.375l4.805-2.437.053-.893L.6 23.765l-.601.61H0z"/><path fill="#303030" d="M10.812 24.375l-6.007-2.438L0 24.375l10.812 4.875v-4.875z"/><path fill="#39a814" fill-opacity=".7" d="M10.812 24.375l-6.007-2.438L0 24.375l10.812 4.875v-4.875z"/><path fill="url(#_Linear4)" d="M10.812 29.25v-4.875l-.766-.31-.255 4.725 1.02.46h.001z"/><path fill="#39a814" d="M21.623 7.313H0v4.875h21.623V7.311v.002z"/><path fill="url(#_Linear5)" d="M21.624 12.188h-4.806v1.218h4.806v-1.219.001z"/><path fill="#303030" d="M38.117 26.813h4.228V12.2h5.154V8.044H32.963V12.2h5.154v14.613zm9.917 0H52v-7.508c0-1.609.792-2.413 2.378-2.413h2.379v-3.754h-2.51c-1.719 0-2.38 1.073-2.38 1.073h-.132l-.264-1.073h-3.436v13.675h-.001zm16.538.268c5.021 0 6.475-4.424 6.475-4.424h-3.965s-.792 1.206-2.51 1.206c-1.718 0-2.907-1.206-3.04-2.815h9.78s.131-.402.131-1.34c0-3.888-2.907-6.838-6.871-6.838-4.097 0-7.004 2.95-7.004 7.105 0 4.156 2.907 7.106 7.004 7.106zm-3.04-8.446c.397-1.743 1.454-2.682 3.04-2.682 1.585 0 2.643.939 3.04 2.682h-6.08zm11.496 8.178h11.496v-3.754h-6.078l5.946-6.301v-3.62H73.16v3.754h5.814l-5.946 6.3v3.621zm20.089.268c4.096 0 7.003-2.95 7.003-7.106s-2.907-7.105-7.003-7.105c-4.097 0-7.004 2.95-7.004 7.105 0 4.156 2.907 7.106 7.004 7.106zm0-3.754c-1.718 0-3.04-1.34-3.04-3.352 0-2.01 1.322-3.351 3.04-3.351s3.04 1.34 3.04 3.351-1.322 3.352-3.04 3.352zm9.504 3.486h3.964v-7.508c0-1.609.793-2.413 2.379-2.413h2.378v-3.754h-2.511c-1.717 0-2.378 1.073-2.378 1.073h-.132l-.264-1.073h-3.436v13.675zm23.905.268c4.889 0 7.4-2.547 7.4-5.765 0-3.217-1.586-4.826-5.286-5.496l-2.907-.537c-1.718-.322-2.246-.804-2.246-1.743 0-1.072.925-2.01 2.775-2.01 2.061 0 3.303 1.233 3.303 2.68h4.229c0-3.753-2.643-6.434-7.532-6.434-4.493 0-7.004 2.547-7.004 5.764 0 2.95 1.586 4.612 4.889 5.229l2.908.536c1.982.375 2.642 1.073 2.642 2.011 0 1.073-.925 2.011-3.171 2.011-2.246 0-3.436-1.207-3.436-2.681h-4.228c0 3.62 2.775 6.435 7.664 6.435zm15.451 0c2.511 0 3.7-1.475 3.7-1.475h.132l.265 1.207h3.435V13.138h-3.964v7.508c0 1.474-1.057 2.547-2.511 2.547-1.453 0-2.51-1.073-2.51-2.547v-7.508h-3.965v8.312c0 3.352 2.247 5.63 5.418 5.63v.001zm10.713-.268h3.965V13.138h-3.965v13.675zm0-15.659h3.965V7.668h-3.965v3.486zm12.278 15.659h3.171v-3.754h-2.114c-.661 0-.925-.268-.925-.939v-5.228h3.039v-3.754H165.1v-4.29h-3.965v4.29h-2.114v3.754h2.114v6.167c0 2.413 1.322 3.754 3.833 3.754zm11.9.268c5.021 0 6.475-4.424 6.475-4.424h-3.965s-.792 1.206-2.51 1.206c-1.718 0-2.907-1.206-3.04-2.815h9.779s.132-.402.132-1.34c0-3.888-2.907-6.838-6.871-6.838-4.097 0-7.004 2.95-7.004 7.105 0 4.156 2.907 7.106 7.004 7.106zm-3.04-8.446c.397-1.743 1.454-2.682 3.04-2.682 1.585 0 2.643.939 3.039 2.682h-6.079z"/></g><defs><linearGradient id="_Linear2" x1="0" x2="1" y1="0" y2="0" gradientTransform="matrix(-.61 .601 -.601 -.61 19.222 23.156)" gradientUnits="userSpaceOnUse"><stop offset="0" stop-opacity=".05"/><stop offset="1" stop-opacity="0"/></linearGradient><linearGradient id="_Linear3" x1="0" x2="1" y1="0" y2="0" gradientTransform="rotate(-116.93 8.907 10.47) scale(1.358)" gradientUnits="userSpaceOnUse"><stop offset="0" stop-opacity=".05"/><stop offset="1" stop-opacity="0"/></linearGradient><linearGradient id="_Linear4" x1="0" x2="1" y1="0" y2="0" gradientTransform="rotate(180 5.406 13.406) scale(.601)" gradientUnits="userSpaceOnUse"><stop offset="0" stop-opacity=".05"/><stop offset="1" stop-opacity="0"/></linearGradient><linearGradient id="_Linear5" x1="0" x2="1" y1="0" y2="0" gradientTransform="rotate(90 3.516 15.705) scale(1.218)" gradientUnits="userSpaceOnUse"><stop offset="0" stop-opacity=".05"/><stop offset="1" stop-opacity="0"/></linearGradient></defs></svg>

<?xml version="1.0" encoding="UTF-8" standalone="no"?>
<!DOCTYPE svg PUBLIC "-//W3C//DTD SVG 1.1//EN" "http://www.w3.org/Graphics/SVG/1.1/DTD/svg11.dtd">
<svg width="100%" height="100%" viewBox="0 0 185 39" version="1.1" xmlns="http://www.w3.org/2000/svg" xmlns:xlink="http://www.w3.org/1999/xlink" xml:space="preserve" xmlns:serif="http://www.serif.com/" style="fill-rule:evenodd;clip-rule:evenodd;stroke-linejoin:round;stroke-miterlimit:2;">
    <g>
        <clipPath id="_clip1">
            <rect x="0" y="0" width="185" height="39"/>
        </clipPath>
        <g clip-path="url(#_clip1)">
            <path d="M21.624,7.313L21.624,24.375L16.818,21.937L16.818,7.313L21.624,7.313Z" style="fill:rgb(48,48,48);fill-rule:nonzero;"/>
            <path d="M21.624,7.313L21.624,24.375L16.818,21.937L16.818,7.313L21.624,7.313Z" style="fill:rgb(57,168,20);fill-opacity:0.9;fill-rule:nonzero;"/>
            <path d="M4.805,7.312L4.805,21.938L0,24.375L0,7.312L4.805,7.312Z" style="fill:rgb(48,48,48);fill-rule:nonzero;"/>
            <path d="M4.805,7.312L4.805,21.938L0,24.375L0,7.312L4.805,7.312Z" style="fill:rgb(57,168,20);fill-opacity:0.6;fill-rule:nonzero;"/>
            <path d="M10.813,24.375L16.819,21.937L21.624,24.375L10.813,29.25L10.813,24.375Z" style="fill:rgb(48,48,48);fill-rule:nonzero;"/>
            <path d="M10.813,24.375L16.819,21.937L21.624,24.375L10.813,29.25L10.813,24.375Z" style="fill:rgb(57,168,20);fill-opacity:0.8;fill-rule:nonzero;"/>
            <path d="M16.82,21.938L21.624,24.375L20.273,24.985L16.016,22.264L16.819,21.938L16.82,21.938Z" style="fill:url(#_Linear2);fill-rule:nonzero;"/>
            <path d="M0,24.375L4.805,21.938L4.858,21.045L0.6,23.765L-0.001,24.375L0,24.375Z" style="fill:url(#_Linear3);fill-rule:nonzero;"/>
            <path d="M10.812,24.375L4.805,21.937L0,24.375L10.812,29.25L10.812,24.375Z" style="fill:rgb(48,48,48);fill-rule:nonzero;"/>
            <path d="M10.812,24.375L4.805,21.937L0,24.375L10.812,29.25L10.812,24.375Z" style="fill:rgb(57,168,20);fill-opacity:0.7;fill-rule:nonzero;"/>
            <path d="M10.812,29.25L10.812,24.375L10.046,24.065L9.791,28.79L10.811,29.25L10.812,29.25Z" style="fill:url(#_Linear4);fill-rule:nonzero;"/>
            <path d="M21.623,7.313L0,7.313L0,12.188L21.623,12.188L21.623,7.311L21.623,7.313Z" style="fill:rgb(57,168,20);fill-rule:nonzero;"/>
            <path d="M21.624,12.188L16.818,12.188L16.818,13.406L21.624,13.406L21.624,12.187L21.624,12.188Z" style="fill:url(#_Linear5);fill-rule:nonzero;"/>
            <path d="M38.117,26.813L42.345,26.813L42.345,12.2L47.499,12.2L47.499,8.044L32.963,8.044L32.963,12.2L38.117,12.2L38.117,26.813ZM48.034,26.813L52,26.813L52,19.305C52,17.696 52.792,16.892 54.378,16.892L56.757,16.892L56.757,13.138L54.247,13.138C52.528,13.138 51.867,14.211 51.867,14.211L51.735,14.211L51.471,13.138L48.035,13.138L48.035,26.813L48.034,26.813ZM64.572,27.081C69.593,27.081 71.047,22.657 71.047,22.657L67.082,22.657C67.082,22.657 66.29,23.863 64.572,23.863C62.854,23.863 61.665,22.657 61.532,21.048L71.312,21.048C71.312,21.048 71.443,20.646 71.443,19.708C71.443,15.82 68.536,12.87 64.572,12.87C60.475,12.87 57.568,15.82 57.568,19.975C57.568,24.131 60.475,27.081 64.572,27.081ZM61.532,18.635C61.929,16.892 62.986,15.953 64.572,15.953C66.157,15.953 67.215,16.892 67.612,18.635L61.532,18.635ZM73.028,26.813L84.524,26.813L84.524,23.059L78.446,23.059L84.392,16.758L84.392,13.138L73.16,13.138L73.16,16.892L78.974,16.892L73.028,23.192L73.028,26.813ZM93.117,27.081C97.213,27.081 100.12,24.131 100.12,19.975C100.12,15.819 97.213,12.87 93.117,12.87C89.02,12.87 86.113,15.82 86.113,19.975C86.113,24.131 89.02,27.081 93.117,27.081ZM93.117,23.327C91.399,23.327 90.077,21.987 90.077,19.975C90.077,17.965 91.399,16.624 93.117,16.624C94.835,16.624 96.157,17.964 96.157,19.975C96.157,21.986 94.835,23.327 93.117,23.327ZM102.621,26.813L106.585,26.813L106.585,19.305C106.585,17.696 107.378,16.892 108.964,16.892L111.342,16.892L111.342,13.138L108.831,13.138C107.114,13.138 106.453,14.211 106.453,14.211L106.321,14.211L106.057,13.138L102.621,13.138L102.621,26.813ZM126.526,27.081C131.415,27.081 133.926,24.534 133.926,21.316C133.926,18.099 132.34,16.49 128.64,15.82L125.733,15.283C124.015,14.961 123.487,14.479 123.487,13.54C123.487,12.468 124.412,11.53 126.262,11.53C128.323,11.53 129.565,12.763 129.565,14.21L133.794,14.21C133.794,10.457 131.151,7.776 126.262,7.776C121.769,7.776 119.258,10.323 119.258,13.54C119.258,16.49 120.844,18.152 124.147,18.769L127.055,19.305C129.037,19.68 129.697,20.378 129.697,21.316C129.697,22.389 128.772,23.327 126.526,23.327C124.28,23.327 123.09,22.12 123.09,20.646L118.862,20.646C118.862,24.266 121.637,27.081 126.526,27.081ZM141.977,27.081C144.488,27.081 145.677,25.606 145.677,25.606L145.809,25.606L146.074,26.813L149.509,26.813L149.509,13.138L145.545,13.138L145.545,20.646C145.545,22.12 144.488,23.193 143.034,23.193C141.581,23.193 140.524,22.12 140.524,20.646L140.524,13.138L136.559,13.138L136.559,21.45C136.559,24.802 138.806,27.08 141.977,27.08L141.977,27.081ZM152.69,26.813L156.655,26.813L156.655,13.138L152.69,13.138L152.69,26.813ZM152.69,11.154L156.655,11.154L156.655,7.668L152.69,7.668L152.69,11.154ZM164.968,26.813L168.139,26.813L168.139,23.059L166.025,23.059C165.364,23.059 165.1,22.791 165.1,22.12L165.1,16.892L168.139,16.892L168.139,13.138L165.1,13.138L165.1,8.848L161.135,8.848L161.135,13.138L159.021,13.138L159.021,16.892L161.135,16.892L161.135,23.059C161.135,25.472 162.457,26.813 164.968,26.813ZM176.868,27.081C181.889,27.081 183.343,22.657 183.343,22.657L179.378,22.657C179.378,22.657 178.586,23.863 176.868,23.863C175.15,23.863 173.961,22.657 173.828,21.048L183.607,21.048C183.607,21.048 183.739,20.646 183.739,19.708C183.739,15.82 180.832,12.87 176.868,12.87C172.771,12.87 169.864,15.82 169.864,19.975C169.864,24.131 172.771,27.081 176.868,27.081ZM173.828,18.635C174.225,16.892 175.282,15.953 176.868,15.953C178.453,15.953 179.511,16.892 179.907,18.635L173.828,18.635Z" style="fill:rgb(48,48,48);fill-rule:nonzero;"/>
        </g>
    </g>
    <defs>
        <linearGradient id="_Linear2" x1="0" y1="0" x2="1" y2="0" gradientUnits="userSpaceOnUse" gradientTransform="matrix(-0.61,0.601,-0.601,-0.61,19.222,23.156)"><stop offset="0" style="stop-color:black;stop-opacity:0.05"/><stop offset="1" style="stop-color:black;stop-opacity:0"/></linearGradient>
        <linearGradient id="_Linear3" x1="0" y1="0" x2="1" y2="0" gradientUnits="userSpaceOnUse" gradientTransform="matrix(-0.615,-1.211,1.211,-0.615,3.604,23.156)"><stop offset="0" style="stop-color:black;stop-opacity:0.05"/><stop offset="1" style="stop-color:black;stop-opacity:0"/></linearGradient>
        <linearGradient id="_Linear4" x1="0" y1="0" x2="1" y2="0" gradientUnits="userSpaceOnUse" gradientTransform="matrix(-0.601,7.36013e-17,-7.36013e-17,-0.601,10.812,26.813)"><stop offset="0" style="stop-color:black;stop-opacity:0.05"/><stop offset="1" style="stop-color:black;stop-opacity:0"/></linearGradient>
        <linearGradient id="_Linear5" x1="0" y1="0" x2="1" y2="0" gradientUnits="userSpaceOnUse" gradientTransform="matrix(7.4581e-17,1.218,-1.218,7.4581e-17,19.221,12.188)"><stop offset="0" style="stop-color:black;stop-opacity:0.05"/><stop offset="1" style="stop-color:black;stop-opacity:0"/></linearGradient>
    </defs>
</svg>
